X: 33326
T: Quartz, The
R: jig
M: 6/8
K: Dmixolydian
A,2D DED-|DED FED|A,2D DED|C2C G,A,C|
A,2D DED-|DED FED|EFG cBA|FDD D3:|
|:EGG cGG|EGG cBA|FDD A,B,D|A,B,D FED|
EGG cGG|EGG cBc|Add fdd|1 A2d- dGF:|2 a2a fed||
|:add bdd|a2a fed|ecc GAc|GAc ece|fdd ABd|
ABA FED|1 EFG cBc|Add efg:|2 EFG cBA|FDD D3||

